X:1
T:Plaisir d'amour (1785)
T:Plaisir d'amour (1785)
T:ROMANCE
T:Jean Paul Egide Martini
T:Jean-Pierre Claris de Florian
T:by IMSLP - Public Domain
T:by IMSLP - Public Domain
T:by IMSLP - Public Domain
T:by IMSLP - Public Domain
T:by IMSLP - Public Domain
C:Jean Paul Egide Martini
Z:Jean-Pierre Claris de Florian
Z:by IMSLP - Public Domain
%%score ( 1 2 ) { 3 | ( 4 5 ) }
L:1/8
Q:1/4=60
M:6/8
K:F
V:1 treble nm="Voice"
V:2 treble 
V:3 treble nm="Piano"
V:4 bass 
V:5 bass 
V:1
 z6 | z6 | z6 | z6 | z6 | z6 | z6 |"^CHANT" z2 z z2 C | F3 G3 | A3- A z A | B2 B (AG) A | %11
w: |||||||Plai\-|sir d'a\-|mour _ ne|du\- re qu' un mo\-|
 G3- G z C | D3 E3 | F G A D G B | (A3 G3) | F3 z z2 | z6 | z6 | z6 | z6 | z2 z z2 F | c3 d3 | %22
w: ment, _ Cha\-|grin d'a\-|mour du\- re tou\- te la|vi-           \-|e.|||||J'ai|tout quit\-|
 c d e{/g} f e d | (c3 B3) | A3 z2 z | =B3 c2 ^c | d2 e (fe) d | c3 T=B3 |{AB} c3- c z C | F3 G3 | %30
w: té pour l'in\- gra\- te Syl\-|vi- *|e;|El\- le me|quitte et  prend * un||* * Plai\-|sir d'a\-|
({AGFG)} A3- A z A | B2 B (AG) A | G2 z z2 C | D3 E3 | F G A D G B | A3 !turn!G2 A | F2 z z2 z || %37
w: mour _ ne|du\- re qu' un mo\-|ment, Cha\-|grin d'a\-|mour du\- re tou\- te la|vi- * *|e.|
[K:Ab] A3 A2 A | G3 G2 G | A3 A2 A | G3 z z G | A2 A B2 B | (cB) A"^rit," (de) f | (c3{dc} B2) z | %44
w: Tant que cette|eau cou\- le\-|ra dou\- ce\-|ment Vers|ce ruis\- seau qui|bor- * de la prai\- *|ri\- e.|
 z6 | B3 (Bc) d | e3- e3 | B B B (Bc) d | (e2 c) A3 | G3 (GF) =E | F3- F2 c | B2 B (AF) A | %52
w: |Je t'ai- * me|rai, _|me ré\- pé\- tait * Syl\-|vi- * e.|L'eau cou\- le en\-|cor, _ elle|a chan\- gé * pour\-|
 (A3 G) z ||[K:F] C | F3 G3 | A3- A z A | B2 B (AG) A | G3- G z C |"^cresc." D3 E3 | F G A D G B | %60
w: tant! _|Plai\-|sir d'a\-|mour _ ne|du\- re qu' un mo\-|ment, _ Cha\-|grin d'a\-|mour du\- re tou\- te la|
 (A3 G2 A) | F3 z z2 | z6 | z6 | z6 | z6 | z6 |] %67
w: vi-           \- *|e.||||||
V:2
 x6 | x6 | x6 | x6 | x6 | x6 | x6 | x6 | x6 | x6 | x6 | x6 | x6 | x6 | %14
 x4 A/4(G/4^F/ G/!fermata!A/) | x6 | x6 | x6 | x6 | x6 | x6 | x6 | x6 | x6 | x6 | x6 | x6 | x6 | %28
 x6 | x6 | x6 | x6 | x6 | x6 | x6 | x6 | x6 ||[K:Ab] x6 | x6 | x6 | x6 | x6 | x6 | x6 | x6 | x6 | %46
 x6 | x6 | x6 | x6 | x6 | x6 | x5 ||[K:F] x | x6 | x6 | x6 | x6 | x6 | x6 | x6 | x6 | x6 | x6 | %64
 x6 | x6 | x6 |] %67
V:3
!mf! z6 | z2 z (c/f/c/A/G/F/) |{EFG} (F2 E) (g/b/g/e/c/B/) |{ABc} (B2 A) (c'/^d'/c'/a/f/^d/) | %4
{efg} (f2 e) (b/g/[ce]/[Bd]/[Ac]/[GB]/) | %5
 ([FA]/[GB]/)([GB]/[Ac]/).[Ac] ([Bd]/[ce]/)([ce]/[df]/).[df] | %6
 [Acf]>(af/c/){/d} ([Ac]/[GB]/[FA][EG]) | FFF F2 C | %8
!p![I:staff +1] (A,/[I:staff -1]C/F/C/[I:staff +1]A,/[I:staff -1]F/)[I:staff +1] (G,/[I:staff -1]C/E/C/[I:staff +1]G,/[I:staff -1]E/) | %9
[I:staff +1] (A,/[I:staff -1]C/F/C/[I:staff +1]A,/[I:staff -1]F/)[I:staff +1] (A,/[I:staff -1]C/F/C/[I:staff +1]A,/[I:staff -1]F/) | %10
[I:staff +1] (B,/[I:staff -1]C/E/C/[I:staff +1]B,/[I:staff -1]E/)[I:staff +1] (A,/[I:staff -1]C/F/C/[I:staff +1]A,/[I:staff -1]F/) | %11
"_cresc."[I:staff +1] (G,/[I:staff -1]C/E/C/[I:staff +1]G,/[I:staff -1]E/)[I:staff +1] (G,/[I:staff -1]C/E/C/[I:staff +1]G,/[I:staff -1]E/) | %12
[I:staff +1] (G,/[I:staff -1]D/F/D/[I:staff +1]G,/[I:staff -1]F/)[I:staff +1] (G,/[I:staff -1]C/E/C/[I:staff +1]G,/[I:staff -1]E/) | %13
 z/ [CF]/z/[EG]/z/[FA]/!f! z/[I:staff +1] B,/[I:staff -1]D/G/D/[I:staff +1]B,/ | %14
 A,/[I:staff -1]C/F/C/[I:staff +1]A,/[I:staff -1]F/[I:staff +1] B,/[I:staff -1]C/F/C/[I:staff +1]B,/[I:staff -1]C/ | %15
 F2 z (c/f/c/A/G/F/) |{EFG} (F2 E) (g/b/g/e/c/B/) |{ABc} (B2 A) ([df]/>[eg]/)([df]/>[ce]/)[Bd] | %18
 ([Ac]/>[Bd]/)([Ac]/>[GB]/)[FA] ([df]/>[eg]/)([df]/>[ce]/)[Bd] | %19
 ([Ac]/f/a/f/c/A/) (B/c/4B/4 [FA])[EG] | [A,F][A,CF][A,CF] [A,CF]2 F | %21
 (A/c/f/c/A/c/) (B/d/f/d/B/d/) | ([Ac][Bd][ce]{/g} [df][ce][Bd]) | (A/c/f/c/A/c/) (G/c/e/c/G/c/) | %24
 (A/c/f/c/A/c/) (G/c/e/c/G/c/) | (=B/d/g/d/B/d/) (c/e/g/e/^c/e/) | %26
"_cresc." ([df][df][eg]!f! [fa]{/b}[eg][df]) | (G/c/e/c/G/e/)"_dim." (G/=B/d/B/G/d/) | %28
 [Fc] (_b/g/e/c/) (B/G/E/C/B,/G,/) | (A,/C/F/C/A,/F/) (G,/C/E/C/G,/E/) | %30
 (A,/C/F/C/A,/F/) (A,/C/F/C/A,/F/) | (B,/C/E/C/B,/E/) (A,/C/F/C/A,/F/) | %32
"_cresc." (A,/C/E/C/A,/E/) (G,/C/E/C/G,/E/) | (G,/D/F/D/G,/F/) (G,/C/E/C/G,/E/) | %34
 z/ [A,CF]/z/[CEG]/z/[CFA]/!f! z/ B,/D/G/D/B,/ |"_dim." A,/C/F/C/A,/F/ B,/C/F/E/B,/C/ | %36
 F[A,CF][A,CF] [A,CF]2 z ||[K:Ab]!mf! z/ (F/A/F/A/F/) z/ (f/a/f/a/f/) | %38
 z/ (=e/g/e/g/e/) z/ .d/(d/c/)(c/B/) | A/F/A/F/A/F/ z/ f/a/f/a/f/ | %40
 z/ (=e/g/e/g/e/) z/ .d/(d/c/)(c/B/) | z/ (c/e/c/e/c/) (G/B/d/B/d/B/) | %42
 [Ac]/[Ac]/[GB]/[GB]/[Ac]/[Ac]/ [DFB]3 |!p! (C/E/A/c/A/E/) (D/E/G/B/G/E/) | %44
 z/ (E/=D/E/{/G}F/E/) z/ (e/=d/e/{/f}f/e/) | [GB]3 ([GB][Ac][Bd]) | %46
 [ce]/ (E/=D/E/{/G}F/E/) z/ (e/=d/e/{/g}f/e/) | [GB][GB][GB] ([GB][Ac][Bd]) | %48
 ([ce]2 [Ac]) z/ (C/E/A/E/C/) | (G/=E/_D/B,/D/E/) (G/E/D/B,/D/E/) | %50
 (F/C/A,/C/F/A/) (F/C/A,/C/F/A/) | (B/G/=E/C/E/G/) (A/F/C/A,/C/F/) | ([FA]3 [=EG]) z ||[K:F] z | %54
!p! (A,/C/F/C/A,/F/) (G,/C/E/C/G,/E/) | (A,/C/F/C/A,/F/) (A,/C/F/C/A,/F/) | %56
 B,/C/E/C/B,/C/ A,/C/F/C/A,/F/ | G,/C/E/C/G,/E/ G,/C/E/C/G,/C/ | %58
"_cresc." G,/D/F/D/G,/F/ G,/C/E/C/G,/E/ | z/ [A,CF]/z/[CEG]/z/[B,FA]/ !fermata![B,DFG]3 | %60
 A,/C/F/C/A,/F/ [B,CE]3 |"^A tempo"!mf! F2 z (c/f/c/A/G/F/) |{EFG} (F2 E) (g/b/g/e/c/B/) | %63
{ABc} (B2 A) ([df]/>[eg]/)([df]/>[ce]/)[Bd] | %64
 ([Ac]/>[Bd]/)([Ac]/>[GB]/)[FA] ([df]/>[eg]/)([df]/>[ce]/)[Bd] | %65
"^rall." ([Ac]/f/a/f/c/A/) (B/c/4B/4 [FA])[EG] | [A,F][A,CF][A,CF] [A,CF]2 z |] %67
V:4
 (F,A,C) (F,A,C) | (F,A,C) (F,A,C) | (F,A,C) (C,A,C) | (F,A,C) (C,A,C) | (F,A,C) (C,CC) | %5
 F,F,F, [B,,B,][B,,B,][B,,^B,] | [C,C][C,C][C,C] [C,C][C,C][C,C] | A,A,A, [F,,A,]2 z | F,3 C,3 | %9
 F,,3 F,3 | G,3 F,3 | C,3 z2 z | =B,,3 _B,,3 | (A,,G,,F,,) B,,2 G,, | C,3 C,3 | (F,A,C) (F,A,C) | %16
 (G,B,C) (C,CC) | F,CF F,2 F, | F,2 F, F,2 F, | F,2 F, B,CC, | F,C,A,, F,,2 z | F,3 F,3 | %22
 F,3 z2 z | F,3 C,3 | F,,3 F,3 | F,3 E,3 | D,3 D,E,F, | G,3 G,,3 | C, z z [E,G,C] z z | F,3 C,3 | %30
 F,,3 F,3 | G,3 F,3 | C,3 z z C, | ^B,,3 _B,,3 | A,,G,,F,, B,,2 G,, | C,3 C,3 | %36
 [F,A,]C,A,, F,,2 z ||[K:Ab] .F,(F,G, A,B,=B,) | (CDC _B,A,G,) | .F,(F,G, A,B,=B,) | (CDC B,A,G,) | %41
 (F,F,F,) (_E,E,E,) | (A,A,A,) [D,,D,]3 | E,E,E, E,E,E, | E,3 E3 | %45
 (D,/E,/G,/B,/G,/E,/) (D,/E,/G,/B,/G,/E,/) | (C,/E,/A,/C/A,/E,/) (C,/E,/A,/C/A,/E,/) | %47
 (C,/E,/A,/C/A,/E,/) (C,/E,/A,/C/A,/E,/) | (C,/E,/A,/C/A,/E,/) C,3 | B,,3 B,,3 | A,,3 A,,3 | %51
 [G,,G,]3 [F,,F,]3 | C,CC C z ||[K:F] z | F,3 C,3 | F,,3 F,3 | G,3 F,3 | C,3 z2 C, | =B,,3 _B,,3 | %59
 A,,G,,F,, !fermata![B,,,B,,]3 | C,3 C,3 | F,A,C F,A,C | G,B,C C,CC | F,CF F,2 F, | F,2 F, F,2 F, | %65
 F,2 F, B,CC, | F,C,A,, F,,2 z |] %67
V:5
 x6 | x6 | x6 | x6 | x6 | x6 | x6 | F,C,A,, z2 z | x6 | x6 | x6 | x6 | x6 | x6 | x6 | x6 | x6 | %17
 x6 | x6 | x6 | x6 | x6 | x6 | x6 | x6 | x6 | x6 | x6 | x6 | x6 | x6 | x6 | x6 | x6 | x6 | x6 | %36
 x6 ||[K:Ab] x6 | x6 | x6 | x6 | x6 | x6 | x6 | x6 | x6 | x6 | x6 | x6 | x6 | x6 | x6 | x5 || %53
[K:F] x | x6 | x6 | x6 | x6 | x6 | x6 | x6 | x6 | x6 | x6 | x6 | x6 | x6 |] %67

